assets/svg/twitter.svg

<svg xmlns="http://www.w3.org/2000/svg" width="24" height="24" fill="none" xmlns:v="https://vecta.io/nano"><path d="M22 4c-1 .5-1.98.69-3 1-1.12-1.265-2.783-1.335-4.38-.737S11.977 6.323 12 8v1c-3.245.083-6.135-1.395-8-4 0 0-4.182 7.433 4 11-1.872 1.247-3.74 2.088-6 2 3.308 1.803 6.913 2.423 10.034 1.517a11 11 0 0 0 7.651-7.742 13.84 13.84 0 0 0 .497-3.753c-.002-.25 1.5-2.772 1.818-4.013V4z" stroke="#00a2f3" stroke-width="2" stroke-linejoin="round"/></svg>

<svg width="24" height="24" viewBox="0 0 24 24" fill="none" xmlns="http://www.w3.org/2000/svg">
<path d="M22 4.01C21 4.5 20.02 4.699 19 5C17.879 3.735 16.217 3.665 14.62 4.263C13.023 4.861 11.977 6.323 12 8V9C8.755 9.083 5.865 7.605 4 5C4 5 -0.182 12.433 8 16C6.128 17.247 4.261 18.088 2 18C5.308 19.803 8.913 20.423 12.034 19.517C15.614 18.477 18.556 15.794 19.685 11.775C20.0218 10.5527 20.189 9.28986 20.182 8.022C20.18 7.773 21.692 5.25 22 4.009V4.01Z" stroke="#00A2F3" stroke-width="2" stroke-linecap="round" stroke-linejoin="round"/>
</svg>
